icons/svg/education/training_yoga.svg

<?xml version="1.0" encoding="UTF-8" standalone="no"?>
<!-- Created with Inkscape (http://www.inkscape.org/) -->

<svg
   xmlns:dc="http://purl.org/dc/elements/1.1/"
   xmlns:cc="http://creativecommons.org/ns#"
   xmlns:rdf="http://www.w3.org/1999/02/22-rdf-syntax-ns#"
   xmlns:svg="http://www.w3.org/2000/svg"
   xmlns="http://www.w3.org/2000/svg"
   xmlns:sodipodi="http://sodipodi.sourceforge.net/DTD/sodipodi-0.dtd"
   xmlns:inkscape="http://www.inkscape.org/namespaces/inkscape"
   version="1.0"
   width="580"
   height="580"
   id="svg2"
   sodipodi:version="0.32"
   inkscape:version="0.91 r"
   sodipodi:docname="training_yoga.svg"
   inkscape:output_extension="org.inkscape.output.svg.inkscape">
  <metadata
     id="metadata2975">
    <rdf:RDF>
      <cc:Work
         rdf:about="">
        <dc:format>image/svg+xml</dc:format>
        <dc:type
           rdf:resource="http://purl.org/dc/dcmitype/StillImage" />
        <cc:license
           rdf:resource="http://web.resource.org/cc/PublicDomain" />
        <dc:language>en</dc:language>
      </cc:Work>
    </rdf:RDF>
  </metadata>
  <sodipodi:namedview
     inkscape:window-height="995"
     inkscape:window-width="1280"
     inkscape:pageshadow="2"
     inkscape:pageopacity="0.0"
     guidetolerance="10.0"
     gridtolerance="10.0"
     objecttolerance="10.0"
     borderopacity="1.0"
     bordercolor="#666666"
     pagecolor="#ffffff"
     id="base"
     inkscape:zoom="0.92167712"
     inkscape:cx="181.01473"
     inkscape:cy="287.9592"
     inkscape:window-x="0"
     inkscape:window-y="0"
     inkscape:current-layer="svg2"
     showgrid="false"
     inkscape:window-maximized="1" />
  <defs
     id="defs4">
    <inkscape:perspective
       sodipodi:type="inkscape:persp3d"
       inkscape:vp_x="0 : 290 : 1"
       inkscape:vp_y="0 : 1000 : 0"
       inkscape:vp_z="580 : 290 : 1"
       inkscape:persp3d-origin="290 : 193.33333 : 1"
       id="perspective2441" />
    <inkscape:perspective
       id="perspective3452"
       inkscape:persp3d-origin="30 : 20 : 1"
       inkscape:vp_z="60 : 30 : 1"
       inkscape:vp_y="0 : 1000 : 0"
       inkscape:vp_x="0 : 30 : 1"
       sodipodi:type="inkscape:persp3d" />
    <symbol
       viewBox="244.5 110 489 219.9"
       id="symbol-university">
      <path
         id="path4460"
         d="M79,43l57,119c0,0,21-96,104-96s124,106,124,106l43-133l82-17L0,17L79,43z" />
      <path
         id="path4462"
         d="M94,176l-21,39"
         stroke-width="20"
         stroke="#000000"
         fill="none" />
      <path
         id="path4464"
         d="M300,19c0,10.5-22.6,19-50.5,19S199,29.5,199,19s22.6-19,50.5-19S300,8.5,300,19z" />
      <path
         id="path4466"
         d="M112,216l-16-38L64,88c0,0-9-8-4-35s16-24,16-24"
         stroke-width="20"
         stroke="#000000"
         ill="none" />
    </symbol>
    <inkscape:perspective
       id="perspective4471"
       inkscape:persp3d-origin="372.04724 : 350.78739 : 1"
       inkscape:vp_z="744.09448 : 526.18109 : 1"
       inkscape:vp_y="0 : 1000 : 0"
       inkscape:vp_x="0 : 526.18109 : 1"
       sodipodi:type="inkscape:persp3d" />
    <inkscape:perspective
       id="perspective4668"
       inkscape:persp3d-origin="6 : 4 : 1"
       inkscape:vp_z="12 : 6 : 1"
       inkscape:vp_y="0 : 1000 : 0"
       inkscape:vp_x="0 : 6 : 1"
       sodipodi:type="inkscape:persp3d" />
  </defs>
  <g
     id="g1327">
    <path
       d="M 66.275,1.768 C 24.94,1.768 1.704,23.139 1.704,66.804 L 1.704,516.927 C 1.704,557.771 22.599,579.156 63.896,579.156 L 515.92,579.156 C 557.227,579.156 578.149,558.841 578.149,516.927 L 578.149,66.804 C 578.149,24.203 557.227,1.768 514.628,1.768 C 514.624,1.768 66.133,1.625 66.275,1.768 z "
       style="fill:#111;stroke:#eee;stroke-width:3.40799999"
       id="path1329" />
  </g>
  <path
     inkscape:connector-curvature="0"
     d="m 289.99388,62.004753 c -32.9296,0 -59.62431,26.694667 -59.62431,59.624307 0,32.92966 26.69471,59.62432 59.62431,59.62432 32.9296,0 59.62431,-26.69466 59.62431,-59.62432 0,-32.92964 -26.69471,-59.624307 -59.62431,-59.624307 z m 0,130.428187 c -42.5284,0 -87.7426,17.95504 -87.7426,17.95504 l 0,0.33824 c -14.51581,2.8728 -26.21844,13.4778 -30.48971,27.44073 l -0.33878,0 -35.57132,92.82422 c 0,0 -51.669882,45.13832 -64.028377,55.22025 -12.358494,10.09277 -11.545435,27.75512 -1.355098,36.92642 10.190338,9.16047 24.123448,6.39065 38.281515,-4.74284 10.19035,-8.02219 53.76216,-42.15439 59.96309,-48.10599 6.20094,-5.97327 10.78929,-13.32603 13.88976,-19.31015 2.1573,-4.15147 22.11791,-41.18629 31.50603,-58.60744 l 0,90.4528 c 0,14.80851 -36.69064,35.8071 -57.59167,48.78352 -26.22385,16.2937 -46.75088,27.32692 -46.75088,49.79986 0,25.63846 27.15074,36.58765 50.81617,36.58765 l 32.18358,0 c -3.79427,-5.44208 -6.09794,-12.18776 -6.09794,-20.66525 0,-43.31978 50.89748,-52.03847 81.30588,-57.25289 44.51226,-7.63192 76.57659,-12.81923 76.90182,-12.87343 0.57456,-0.0867 1.44724,0.0434 2.03264,0 0.21682,-0.0216 0.12196,0 0.33878,0 0.0976,0 0.25204,0 0.33877,0 0.23851,-0.0109 0.43906,0 0.67755,0 0.0867,0 0.2629,-0.0326 0.33878,0 5.38787,0.62876 9.48568,5.26862 9.48568,10.84078 0,5.63721 -4.33902,9.97081 -9.82446,10.50201 0,0.0326 0,0.33823 0,0.33823 0,0 -31.69304,4.83771 -76.56305,12.53466 -35.44935,6.08168 -63.35082,13.28538 -63.35082,35.91009 0,15.18794 15.03617,19.59202 29.81214,20.66526 l 24.053,0 c 0.10842,0 0.23037,0 0.33878,0 l 131.44451,0 c 17.12844,0 76.22427,-0.71225 76.22427,-33.53868 0,-20.44573 -16.73004,-31.26483 -36.92643,-44.71824 -38.34386,-25.51867 -67.41613,-43.74745 -67.41613,-57.59112 l 0,-89.43648 c 9.38813,17.42115 29.34872,54.09552 31.50603,58.26922 3.08963,5.97327 7.68884,13.33688 13.88976,19.31014 6.20093,5.96244 49.78359,40.08381 59.96309,48.10599 14.16891,11.12265 28.08034,13.90331 38.28152,4.74285 10.21202,-9.1713 11.01424,-26.83366 -1.3551,-36.92643 -12.36934,-10.09277 -64.02838,-55.22025 -64.02838,-55.22025 l -35.57133,-92.82421 -0.33877,0 c -4.29295,-14.07135 -16.17174,-25.00427 -30.82847,-27.77952 -7.4151,-2.85112 -48.83232,-17.95504 -87.40383,-17.95504 z"
     id="path4"
     style="fill:#ffffff;fill-opacity:1;stroke:none" />
</svg>

<svg width="580" height="580" viewBox="0 0 580 580" fill="none" xmlns="http://www.w3.org/2000/svg">
<g clip-path="url(#clip0)">
<path d="M66.275 1.76802C24.94 1.76802 1.70398 23.139 1.70398 66.804V516.927C1.70398 557.771 22.599 579.156 63.896 579.156H515.92C557.227 579.156 578.149 558.841 578.149 516.927V66.804C578.149 24.203 557.227 1.76802 514.628 1.76802C514.624 1.76802 66.133 1.62502 66.275 1.76802Z" fill="#111111" stroke="#EEEEEE" stroke-width="3.408"/>
<path d="M289.994 62.0048C257.064 62.0048 230.37 88.6994 230.37 121.629C230.37 154.559 257.064 181.253 289.994 181.253C322.923 181.253 349.618 154.559 349.618 121.629C349.618 88.6994 322.923 62.0048 289.994 62.0048V62.0048ZM289.994 192.433C247.465 192.433 202.251 210.388 202.251 210.388V210.726C187.735 213.599 176.033 224.204 171.762 238.167H171.423L135.851 330.991C135.851 330.991 84.1816 376.129 71.8231 386.211C59.4646 396.304 60.2776 413.967 70.468 423.138C80.6583 432.298 94.5914 429.528 108.749 418.395C118.94 410.373 162.512 376.241 168.713 370.289C174.914 364.316 179.502 356.963 182.602 350.979C184.76 346.827 204.72 309.793 214.108 292.371V382.824C214.108 397.633 177.418 418.631 156.517 431.608C130.293 447.901 109.766 458.935 109.766 481.408C109.766 507.046 136.917 517.995 160.582 517.995H192.766C188.971 512.553 186.668 505.807 186.668 497.33C186.668 454.01 237.565 445.292 267.974 440.077C312.486 432.445 344.55 427.258 344.875 427.204C345.45 427.117 346.323 427.247 346.908 427.204C347.125 427.182 347.03 427.204 347.247 427.204C347.344 427.204 347.499 427.204 347.586 427.204C347.824 427.193 348.025 427.204 348.263 427.204C348.35 427.204 348.526 427.171 348.602 427.204C353.99 427.832 358.088 432.472 358.088 438.044C358.088 443.682 353.749 448.015 348.263 448.546C348.263 448.579 348.263 448.885 348.263 448.885C348.263 448.885 316.57 453.722 271.7 461.419C236.251 467.501 208.349 474.705 208.349 497.329C208.349 512.517 223.385 516.921 238.161 517.995H262.214C262.323 517.995 262.445 517.995 262.553 517.995H393.998C411.126 517.995 470.222 517.282 470.222 484.456C470.222 464.01 453.492 453.191 433.295 439.738C394.952 414.219 365.879 395.99 365.879 382.147V292.71C375.267 310.131 395.228 346.806 397.385 350.979C400.475 356.953 405.074 364.316 411.275 370.29C417.476 376.252 461.059 410.373 471.238 418.396C485.407 429.518 499.319 432.299 509.52 423.138C519.732 413.967 520.534 396.305 508.165 386.212C495.795 376.119 444.136 330.992 444.136 330.992L408.565 238.168H408.226C403.933 224.096 392.054 213.163 377.398 210.388C369.983 207.537 328.565 192.433 289.994 192.433V192.433Z" fill="white"/>
</g>
<defs>
<clipPath id="clip0">
<path d="M0 0H580V580H0V0Z" fill="white"/>
</clipPath>
</defs>
</svg>
